X:2698
T:Carrasquina
T:Agachadiechas
C:Trad.
Z:Danzas y Bailes I
M:6/8
L:1/8
Q:3/4=40
K:Bb
dd|edc cfe|e3/2e/d z dd|edc cff|e2 d z dd|
|edc cfe|f3/2ed/ z dd|cde fef|e2 d z dd|
|edc cfe|f3/2e/d z dd|edc cff|e2 d z dd|
|edc cfe|f3/2e/d z dd|cde fef|e2 d z d/d/d/d/|
|edc cfe|e3/2e/d z dd|cde fef|e2 e z3|


